webapp/src/main/webapp/src/assets/svgs/assessment-icons/Math_8_Proportional-Relationships-Lines-Linear-Equations.svg

<?xml version="1.0" encoding="utf-8"?>
<!-- Generator: Adobe Illustrator 24.0.0, SVG Export Plug-In . SVG Version: 6.00 Build 0)  -->
<svg version="1.1" id="Layer_1" xmlns="http://www.w3.org/2000/svg" xmlns:xlink="http://www.w3.org/1999/xlink" x="0px" y="0px"
	 viewBox="0 0 100 100" style="enable-background:new 0 0 100 100;" xml:space="preserve">
<style type="text/css">
	.st0{fill:none;}
	.st1{fill:#FFFFFF;}
	.st2{fill:#FFFFFF;stroke:#FFFFFF;stroke-width:0.25;stroke-miterlimit:10;}
	.st3{fill:none;stroke:#000000;stroke-width:0.25;stroke-linecap:round;stroke-miterlimit:10;}
	.st4{fill:#D9D9D9;}
	.st5{fill:none;stroke:#000000;stroke-width:2;stroke-linejoin:round;stroke-miterlimit:10;}
	.st6{fill:none;stroke:#000000;stroke-width:0.4396;stroke-miterlimit:10;}
	.st7{fill:none;stroke:#000000;stroke-linecap:round;stroke-linejoin:round;}
	.st8{fill:none;stroke:#000000;stroke-linecap:round;stroke-linejoin:round;stroke-miterlimit:10;}
</style>
<path d="M99.98,8.22V7.97h-7.93V0.01h-0.25v7.96h-7.83V0.01h-0.25v7.96h-7.83V0.01h-0.25v7.96h-7.83V0.01h-0.25v7.96h-7.83V0.01
	h-0.25v7.96h-7.83V0.01H51.4v7.96h-7.83V0.01h-0.25v7.96h-7.83V0.01h-0.25v7.96H27.4V0.01h-0.25v7.96h-7.83V0.01h-0.25v7.96h-7.83
	V0.01h-0.25v7.96H3.02v-7.97h-3v99.95h0v0.03h99.95v-3h-7.91v-7.96h7.93v-0.25h-7.93v-7.83h7.93v-0.25h-7.93v-7.83h7.93v-0.25h-7.93
	v-7.83h7.93v-0.25h-7.93V56.7h7.93v-0.25h-7.93v-7.83h7.93v-0.25h-7.93v-7.83h7.93v-0.25h-7.93v-7.83h7.93v-0.25h-7.93v-7.83h7.93
	v-0.25h-7.93V16.3h7.93v-0.25h-7.93V8.22H99.98z M83.73,8.22v7.83h-7.83V8.22H83.73z M72.2,33.58l-4.39,3.78v-4.91h3.42L72.2,33.58z
	 M67.56,37.58l-3.14,2.71h-4.69v-7.83h7.83V37.58z M23.67,80.69c-0.02-0.74-0.23-1.47-0.61-2.12l4.09-3.53v5.65H23.67z M59.48,44.55
	l-4.43,3.82h-2.99c-0.14-0.02-0.27-0.04-0.41-0.04v-7.79h7.83V44.55z M59.73,40.54h4.4l-4.4,3.79V40.54z M35.48,64.53V56.7h7.83
	v1.78l-7.03,6.05H35.48z M36,64.78l-0.52,0.44v-0.44H36z M48.87,56.33c0.05,0.04,0.1,0.09,0.15,0.12h-0.29L48.87,56.33z
	 M48.37,49.62c-1.4,1.4-1.65,3.5-0.79,5.18l-1.92,1.65h-2.1v-7.83h6.36C49.36,48.84,48.83,49.16,48.37,49.62z M45.38,56.7
	l-1.81,1.56V56.7H45.38z M43.32,56.45h-7.83v-7.83h7.83V56.45z M43.32,61.11v3.41h-3.96L43.32,61.11z M43.57,60.9l4.87-4.2h1.03
	c0.6,0.31,1.26,0.49,1.92,0.51v7.32h-7.83V60.9z M54.12,49.17c-0.32-0.23-0.65-0.41-1-0.55h1.64L54.12,49.17z M51.4,48.33
	c-0.14,0-0.27,0.02-0.41,0.04h-7.42v-7.83h7.83V48.33z M43.32,48.37h-7.83v-7.83h7.83V48.37z M35.23,48.37H27.4v-7.83h7.83V48.37z
	 M35.23,48.62v7.83H27.4v-7.83H35.23z M35.23,56.7v7.83H27.4V56.7H35.23z M35.23,64.78v0.66l-7.83,6.75v-7.41H35.23z M35.23,68.08
	v4.53h-5.26L35.23,68.08z M35.48,67.86l3.58-3.08h4.25v7.83h-7.83V67.86z M43.57,64.78h7.83v7.83h-7.83V64.78z M51.65,64.78h7.83
	v7.83h-7.83V64.78z M51.65,64.53v-7.32c0.67-0.02,1.32-0.2,1.92-0.51h5.91v7.83H51.65z M54.02,56.45c0.23-0.16,0.45-0.33,0.65-0.53
	c1.42-1.42,1.66-3.56,0.76-5.24l2.39-2.06h1.66v7.83H54.02z M58.11,48.37l1.37-1.18v1.18H58.11z M51.65,40.29v-7.83h7.83v7.83H51.65
	z M51.4,40.29h-7.83v-7.83h7.83V40.29z M43.32,40.29h-7.83v-7.83h7.83V40.29z M35.23,40.29H27.4v-7.83h7.83V40.29z M27.15,40.29
	h-7.83v-7.83h7.83V40.29z M27.15,40.54v7.83h-7.83v-7.83H27.15z M27.15,48.62v7.83h-7.83v-7.83H27.15z M27.15,56.7v7.83h-7.83V56.7
	H27.15z M27.15,64.78v7.62l-0.24,0.21h-7.59v-7.83H27.15z M26.62,72.86L21.7,77.1c-0.72-0.48-1.54-0.72-2.37-0.73v-3.51H26.62z
	 M27.4,74.83l2.28-1.97h5.55v7.83H27.4V74.83z M35.48,72.86h7.83v7.83h-7.83V72.86z M43.57,72.86h7.83v7.83h-7.83V72.86z
	 M51.65,72.86h7.83v7.83h-7.83V72.86z M59.73,72.86h7.83v7.83h-7.83V72.86z M59.73,72.61v-7.83h7.83v7.83H59.73z M59.73,64.53V56.7
	h7.83v7.83H59.73z M59.73,56.45v-7.83h7.83v7.83H59.73z M59.73,48.37v-1.4l7.47-6.43h0.37v7.83H59.73z M67.49,40.29l0.08-0.07v0.07
	H67.49z M59.73,32.21v-7.83h7.83v7.83H59.73z M59.48,32.21h-7.83v-7.83h7.83V32.21z M51.4,32.21h-7.83v-7.83h7.83V32.21z
	 M43.32,32.21h-7.83v-7.83h7.83V32.21z M35.23,32.21H27.4v-7.83h7.83V32.21z M27.15,32.21h-7.83v-7.83h7.83V32.21z M19.07,32.21
	h-7.83v-7.83h7.83V32.21z M19.07,32.46v7.83h-7.83v-7.83H19.07z M19.07,40.54v7.83h-7.83v-7.83H19.07z M19.07,48.62v7.83h-7.83
	v-7.83H19.07z M19.07,56.7v7.83h-7.83V56.7H19.07z M19.07,64.78v7.83h-7.83v-7.83H19.07z M19.07,72.86v3.52
	c-1.09,0.04-2.16,0.46-2.99,1.29c-0.84,0.84-1.26,1.93-1.29,3.02h-3.56v-7.83H19.07z M14.79,80.94c0.03,1.1,0.45,2.19,1.29,3.02
	c0.83,0.83,1.9,1.25,2.99,1.29v3.52h-7.83v-7.83H14.79z M19.32,85.26c1.11-0.02,2.22-0.45,3.06-1.29c0.84-0.84,1.26-1.93,1.29-3.02
	h3.48v7.83h-7.83V85.26z M27.4,80.94h7.83v7.83H27.4V80.94z M35.48,80.94h7.83v7.83h-7.83V80.94z M43.57,80.94h7.83v7.83h-7.83
	V80.94z M51.65,80.94h7.83v7.83h-7.83V80.94z M59.73,80.94h7.83v7.83h-7.83V80.94z M67.81,80.94h7.83v7.83h-7.83V80.94z
	 M67.81,80.69v-7.83h7.83v7.83H67.81z M67.81,72.61v-7.83h7.83v7.83H67.81z M67.81,64.53V56.7h7.83v7.83H67.81z M67.81,56.45v-7.83
	h7.83v7.83H67.81z M67.81,48.37v-7.83h7.83v7.83H67.81z M67.81,40.29v-0.28l5.7-4.91l2.13,2.48v2.72H67.81z M71.02,32.21h-3.21
	v-7.83h7.83v5.04l-6.04,1.15L71.02,32.21z M67.81,24.13V16.3h7.83v7.83H67.81z M67.56,24.13h-7.83V16.3h7.83V24.13z M59.48,24.13
	h-7.83V16.3h7.83V24.13z M51.4,24.13h-7.83V16.3h7.83V24.13z M43.32,24.13h-7.83V16.3h7.83V24.13z M35.23,24.13H27.4V16.3h7.83
	V24.13z M27.15,24.13h-7.83V16.3h7.83V24.13z M19.07,24.13h-7.83V16.3h7.83V24.13z M10.99,24.13H3.02V16.3h7.97V24.13z M10.99,24.38
	v7.83H3.02v-7.83H10.99z M10.99,32.46v7.83H3.02v-7.83H10.99z M10.99,40.54v7.83H3.02v-7.83H10.99z M10.99,48.62v7.83H3.02v-7.83
	H10.99z M10.99,56.7v7.83H3.02V56.7H10.99z M10.99,64.78v7.83H3.02v-7.83H10.99z M10.99,72.86v7.83H3.02v-7.83H10.99z M10.99,80.94
	v7.83H3.02v-7.83H10.99z M10.99,89.02v7.96H3.02v-7.96H10.99z M11.24,89.02h7.83v7.96h-7.83V89.02z M19.32,89.02h7.83v7.96h-7.83
	V89.02z M27.4,89.02h7.83v7.96H27.4V89.02z M35.48,89.02h7.83v7.96h-7.83V89.02z M43.57,89.02h7.83v7.96h-7.83V89.02z M51.65,89.02
	h7.83v7.96h-7.83V89.02z M59.73,89.02h7.83v7.96h-7.83V89.02z M67.81,89.02h7.83v7.96h-7.83V89.02z M75.89,89.02h7.83v7.96h-7.83
	V89.02z M75.89,88.77v-7.83h7.83v7.83H75.89z M75.89,80.69v-7.83h7.83v7.83H75.89z M75.89,72.61v-7.83h7.83v7.83H75.89z
	 M75.89,64.53V56.7h7.83v7.83H75.89z M75.89,56.45v-7.83h7.83v7.83H75.89z M75.89,48.37v-7.83h7.83v7.83H75.89z M75.89,40.29v-2.42
	l0.22,0.25l1.98-5.66h5.64v7.83H75.89z M78.18,32.21l1.22-3.5l-3.51,0.67v-4.99h3.52c0.03,1.1,0.45,2.19,1.29,3.02
	c0.84,0.84,1.93,1.26,3.02,1.29v3.52H78.18z M83.73,19.81c-1.1,0.03-2.19,0.45-3.02,1.29c-0.84,0.84-1.26,1.93-1.29,3.02h-3.52V16.3
	h7.83V19.81z M75.64,8.22v7.83h-7.83V8.22H75.64z M67.56,8.22v7.83h-7.83V8.22H67.56z M59.48,8.22v7.83h-7.83V8.22H59.48z
	 M51.4,8.22v7.83h-7.83V8.22H51.4z M43.32,8.22v7.83h-7.83V8.22H43.32z M35.23,8.22v7.83H27.4V8.22H35.23z M27.15,8.22v7.83h-7.83
	V8.22H27.15z M19.07,8.22v7.83h-7.83V8.22H19.07z M10.99,8.22v7.83H3.02V8.22H10.99z M91.81,96.98h-7.83v-7.96h7.83V96.98z
	 M91.81,88.77h-7.83v-7.83h7.83V88.77z M91.81,80.69h-7.83v-7.83h7.83V80.69z M91.81,72.61h-7.83v-7.83h7.83V72.61z M91.81,64.53
	h-7.83V56.7h7.83V64.53z M91.81,56.45h-7.83v-7.83h7.83V56.45z M91.81,48.37h-7.83v-7.83h7.83V48.37z M91.81,40.29h-7.83v-7.83h7.83
	V40.29z M91.81,32.21h-7.83v-3.52c1.1-0.03,2.19-0.45,3.02-1.29c0.84-0.84,1.26-1.93,1.29-3.02h3.52V32.21z M91.81,24.13h-3.52
	c-0.03-1.1-0.45-2.19-1.29-3.02c-0.84-0.84-1.93-1.26-3.02-1.29V16.3h7.83V24.13z M91.81,16.05h-7.83V8.22h7.83V16.05z"/>
</svg>

<svg id="Layer_1" data-name="Layer 1" xmlns="http://www.w3.org/2000/svg" viewBox="0 0 100 100"><defs><style>.cls-1{fill:#231f20;}</style></defs><title> </title><path class="cls-1" d="M100,8.22V8H92.06V0h-.25V8H84V0h-.25V8H75.89V0h-.25V8H67.81V0h-.25V8H59.73V0h-.25V8H51.65V0H51.4V8H43.57V0h-.25V8H35.48V0h-.25V8H27.4V0h-.25V8H19.32V0h-.25V8H11.24V0H11V8H3V0H0v100H0v0H100V97H92.06V89H100v-.25H92.06V80.94H100v-.25H92.06V72.86H100v-.25H92.06V64.78H100v-.25H92.06V56.7H100v-.25H92.06V48.62H100v-.25H92.06V40.54H100v-.25H92.06V32.46H100v-.25H92.06V24.38H100v-.25H92.06V16.3H100v-.25H92.06V8.22Zm-16.25,0v7.83H75.89V8.22ZM72.2,33.58l-4.39,3.79V32.46h3.42Zm-4.64,4-3.14,2.71H59.73V32.46h7.83ZM23.67,80.69a4.44,4.44,0,0,0-.61-2.12L27.15,75v5.65ZM59.48,44.55l-4.43,3.82h-3a2.71,2.71,0,0,0-.4,0V40.54h7.83Zm.25-4h4.4l-4.4,3.79Zm-24.25,24V56.7h7.84v1.77l-7,6.06Zm.52.25-.52.44v-.44Zm12.87-8.45a.88.88,0,0,1,.15.12h-.29Zm-.5-6.71a4.45,4.45,0,0,0-.79,5.18l-1.91,1.65h-2.1V48.62h6.36A4.43,4.43,0,0,0,48.37,49.62Zm-3,7.08-1.81,1.56V56.7Zm-2.06-.25H35.48V48.62h7.84Zm0,4.66v3.42h-4Zm.25-.21,4.87-4.2h1a4.55,4.55,0,0,0,1.93.51v7.32H43.57ZM54.12,49.17a4.27,4.27,0,0,0-1-.55h1.63Zm-2.72-.84a2.85,2.85,0,0,0-.41,0H43.57V40.54H51.4Zm-8.08,0H35.48V40.54h7.84Zm-8.09,0H27.4V40.54h7.83Zm0,.25v7.83H27.4V48.62Zm0,8.08v7.83H27.4V56.7Zm0,8.08v.66L27.4,72.19V64.78Zm0,3.3v4.53H30Zm.25-.22,3.58-3.08h4.26v7.83H35.48Zm8.09-3.08H51.4v7.83H43.57Zm8.08,0h7.83v7.83H51.65Zm0-.25V57.21a4.5,4.5,0,0,0,1.92-.51h5.91v7.83ZM54,56.45a4.7,4.7,0,0,0,.65-.53,4.44,4.44,0,0,0,.76-5.24l2.39-2.06h1.66v7.83Zm4.09-8.08,1.37-1.18v1.18Zm-6.46-8.08V32.46h7.83v7.83Zm-.25,0H43.57V32.46H51.4Zm-8.08,0H35.48V32.46h7.84Zm-8.09,0H27.4V32.46h7.83Zm-8.08,0H19.32V32.46h7.83Zm0,.25v7.83H19.32V40.54Zm0,8.08v7.83H19.32V48.62Zm0,8.08v7.83H19.32V56.7Zm0,8.08V72.4l-.24.21H19.32V64.78Zm-.53,8.08L21.7,77.1a4.55,4.55,0,0,0-2.38-.73V72.86Zm.78,2,2.29-2h5.54v7.83H27.4Zm8.08-2h7.84v7.83H35.48Zm8.09,0H51.4v7.83H43.57Zm8.08,0h7.83v7.83H51.65Zm8.08,0h7.83v7.83H59.73Zm0-.25V64.78h7.83v7.83Zm0-8.08V56.7h7.83v7.83Zm0-8.08V48.62h7.83v7.83Zm0-8.08V47l7.47-6.43h.36v7.83Zm7.76-8.08.07-.07v.07Zm-7.76-8.08V24.38h7.83v7.83Zm-.25,0H51.65V24.38h7.83Zm-8.08,0H43.57V24.38H51.4Zm-8.08,0H35.48V24.38h7.84Zm-8.09,0H27.4V24.38h7.83Zm-8.08,0H19.32V24.38h7.83Zm-8.08,0H11.24V24.38h7.83Zm0,.25v7.83H11.24V32.46Zm0,8.08v7.83H11.24V40.54Zm0,8.08v7.83H11.24V48.62Zm0,8.08v7.83H11.24V56.7Zm0,8.08v7.83H11.24V64.78Zm0,8.08v3.52a4.41,4.41,0,0,0-4.28,4.31H11.24V72.86Zm-4.28,8.08a4.41,4.41,0,0,0,4.28,4.31v3.52H11.24V80.94Zm4.53,4.32a4.42,4.42,0,0,0,4.35-4.32h3.48v7.83H19.32Zm8.08-4.32h7.83v7.83H27.4Zm8.08,0h7.84v7.83H35.48Zm8.09,0H51.4v7.83H43.57Zm8.08,0h7.83v7.83H51.65Zm8.08,0h7.83v7.83H59.73Zm8.08,0h7.83v7.83H67.81Zm0-.25V72.86h7.83v7.83Zm0-8.08V64.78h7.83v7.83Zm0-8.08V56.7h7.83v7.83Zm0-8.08V48.62h7.83v7.83Zm0-8.08V40.54h7.83v7.83Zm0-8.08V40l5.7-4.91,2.13,2.47v2.72ZM71,32.21H67.81V24.38h7.83v5l-6,1.14Zm-3.21-8.08V16.3h7.83v7.83Zm-.25,0H59.73V16.3h7.83Zm-8.08,0H51.65V16.3h7.83Zm-8.08,0H43.57V16.3H51.4Zm-8.08,0H35.48V16.3h7.84Zm-8.09,0H27.4V16.3h7.83Zm-8.08,0H19.32V16.3h7.83Zm-8.08,0H11.24V16.3h7.83Zm-8.08,0H3V16.3h8Zm0,.25v7.83H3V24.38Zm0,8.08v7.83H3V32.46Zm0,8.08v7.83H3V40.54Zm0,8.08v7.83H3V48.62Zm0,8.08v7.83H3V56.7Zm0,8.08v7.83H3V64.78Zm0,8.08v7.83H3V72.86Zm0,8.08v7.83H3V80.94ZM11,89v8H3V89Zm.25,0h7.83v8H11.24Zm8.08,0h7.83v8H19.32Zm8.08,0h7.83v8H27.4Zm8.08,0h7.84v8H35.48Zm8.09,0H51.4v8H43.57Zm8.08,0h7.83v8H51.65Zm8.08,0h7.83v8H59.73Zm8.08,0h7.83v8H67.81Zm8.08,0h7.84v8H75.89Zm0-.25V80.94h7.84v7.83Zm0-8.08V72.86h7.84v7.83Zm0-8.08V64.78h7.84v7.83Zm0-8.08V56.7h7.84v7.83Zm0-8.08V48.62h7.84v7.83Zm0-8.08V40.54h7.84v7.83Zm0-8.08V37.86l.22.26,2-5.66h5.64v7.83Zm2.29-8.08L79.4,28.7l-3.51.67v-5h3.52a4.41,4.41,0,0,0,4.32,4.31v3.52Zm5.55-12.4a4.41,4.41,0,0,0-4.32,4.32H75.89V16.3h7.84ZM75.64,8.22v7.83H67.81V8.22Zm-8.08,0v7.83H59.73V8.22Zm-8.08,0v7.83H51.65V8.22Zm-8.08,0v7.83H43.57V8.22Zm-8.08,0v7.83H35.48V8.22Zm-8.09,0v7.83H27.4V8.22Zm-8.08,0v7.83H19.32V8.22Zm-8.08,0v7.83H11.24V8.22ZM11,8.22v7.83H3V8.22ZM91.81,97H84V89h7.83Zm0-8.21H84V80.94h7.83Zm0-8.08H84V72.86h7.83Zm0-8.08H84V64.78h7.83Zm0-8.08H84V56.7h7.83Zm0-8.08H84V48.62h7.83Zm0-8.08H84V40.54h7.83Zm0-8.08H84V32.46h7.83Zm0-8.08H84V28.69a4.41,4.41,0,0,0,4.31-4.31h3.52Zm0-8.08H88.29A4.41,4.41,0,0,0,84,19.81V16.3h7.83Zm0-8.08H84V8.22h7.83Z"/></svg>
